icons/outline/keyboard-off.svg

<!--
category: Devices
tags: [computer, laptop, device, type]
version: "1.39"
unicode: "eea0"
-->
<svg
  xmlns="http://www.w3.org/2000/svg"
  width="24"
  height="24"
  viewBox="0 0 24 24"
  fill="none"
  stroke="currentColor"
  stroke-width="2"
  stroke-linecap="round"
  stroke-linejoin="round"
>
  <path d="M18 18h-14a2 2 0 0 1 -2 -2v-8a2 2 0 0 1 2 -2h2m4 0h10a2 2 0 0 1 2 2v8c0 .554 -.226 1.056 -.59 1.418m-15.41 -7.418l0 .01m4 -.01l0 .01m4 -.01l0 .01m4 -.01l0 .01m-12 3.99l0 .01m12 -.01l0 .01m-8 -.01l4 0m-11 -11l18 18" />
</svg>

<!--
category: Devices
tags: [computer, laptop, device, type]
version: "1.39"
unicode: "eea0"
-->
<svg
  xmlns="http://www.w3.org/2000/svg"
  width="24"
  height="24"
  viewBox="0 0 24 24"
  fill="none"
  stroke="currentColor"
  stroke-width="2"
  stroke-linecap="round"
  stroke-linejoin="round"
>
    <path d="M18 18h-14a2 2 0 0 1 -2 -2v-8a2 2 0 0 1 2 -2h2m4 0h10a2 2 0 0 1 2 2v8c0 .554 -.226 1.056 -.59 1.418M6 10l0 .01M10 10l0 .01M14 10l0 .01M18 10l0 .01M6 14l0 .01M18 14l0 .01M10 14l4 0M3 3l18 18" />
</svg>
